X:1
T:Title
L:1/8
Q:1/4=90
M:4/4
K:F
V:1 treble nm="Church Organ, Staff"
V:1
 C2 D2- D/ z/ E F2 | G2 A2 dd c2 | A2 A2- A/ z/ G G2 | G2 A2 G2 E2 | C2 D2- D/ z/ E F2 | %5
w: By~George~Edgar~Oliver * * * *|||||
 G2 A2 d2 c2 | c=BAE Ac c2 | =B2 _B2- B/ z/ A A2 | GA B2 f e2 c- | c A3 e d2 G | AcBe d c2 G- | %11
w: ||||||
 G B3 B A2 A- | A B3 B A2 A- | A d3 d c2 F- | FGAB- B/ z/ A2 F- | F G3 G .F3 |] %16
w: |||||

